X: 20261
T: Mount my Baggage
%R: reel
B: James Oswald "The Caledonian Pocket Companion" v.2 p.26 #1 (and top 6 staves of p.27)
Z: 2019 John Chambers <jc:trillian.mit.edu>
N: This tune has 3-bar phrases.
M: 2/4
L: 1/16
K: G
%%slurgraces 1
%%graceslurs 1
"_Brisk"D2 |\
G2B2d4 | G2d2 (edcB) | TB2A2A2B2 | G2B2d4 | B2g2 Tf3e | {e}d2B2B2 :: (ga) | bgaf g4 | G2d2 (ed)(cB) |
B2A2 A2(ga) | (bg)(af) g4 | G2g2 f3e | {e}d2B2 B2(ga) | (ba)(ge) {de}g4 | G2d2 (ed)(cB) | TB2A2A2B2 | G2B2d4 |
B2g2 Tf3e | {e}d2B2B2 :: D2 | GBdg g4 | GBdg bd'dB | B2A2A2D2 | GBdg g4 | dgbd' c'bag | d2B2B2 :: c'2 |
bd'af gdBG | ABcd efgB | B2A2A2c'2 | bd'af gdBG | ABcd efge | d2B2B2c'2 | bd'af gdBG | (AB)(cd) efgB |
TB2A2A2D2 | GBdg g4 | dgec' bagf | g2G2G2 :: D2 | GdBd GgBg | GdBd GgdB | TB2A2A2D2 | GdBd (Gg)(fg) |
GABc dBge | {e}d2B2B2 :: c'2 | bd'gb ac'fa | gbeg fdgB | B2A2A2c'2 | bd'gb ac'fa | gbeg fdge | d2B2B2c'2 |
bd'gb ac'fa | gbeg fdgB | TB2A2A2D2 | (GB)(Ac) (Bd)(ce) | (df)(eg) (fd)(ge) | d2B2B2 :: D2 | (GD)(BD) (dD)(BD) | (GD)(BD) (dD)(BD) |
TB2A2A2D2 | (GD)(BD) (dD)(BD) | (GD)(BD)  (dB)(ge) | {e}d2B2B2 :: c'2 | bd'gd' bd'dd' | bd'gd' bd'dB | B2A2A2c'2 | bd'gd' bd'dd' |
bd'gb efge | d2B2B2c'2 | (bd')(gb) (ac')(fa) | (gb)(eg) (fd)(gB) | TB2A2A2D2 | (GB)(dB) (GB)(gB) | (GB)(dB) (GB)(ge) | {e}d2B2B2 :|


